public/icons/outline/emoji/face-grin-stars.svg

<svg xmlns="http://www.w3.org/2000/svg" width="24" height="24" fill="none" viewBox="0 0 24 24">
  <path stroke="currentColor" stroke-linecap="round" stroke-linejoin="round" stroke-width="2" d="M12 21a9 9 0 1 0 0-18 9 9 0 0 0 0 18Z"/>
  <path stroke="currentColor" stroke-linecap="round" stroke-linejoin="round" stroke-width="2" d="M17 13c0 2.038-2.239 4.5-5 4.5S7 15.038 7 13c0 1.444 10 1.444 10 0Z"/>
  <path fill="currentColor" d="m9 6.811.618 1.253 1.382.2-1 .975.236 1.377L9 9.966l-1.236.65L8 9.239l-1-.975 1.382-.2L9 6.811Zm6 0 .618 1.253 1.382.2-1 .975.236 1.377L15 9.966l-1.236.65L14 9.239l-1-.975 1.382-.2L15 6.811Z"/>
  <path stroke="currentColor" stroke-linecap="round" stroke-linejoin="round" d="m9 6.811.618 1.253 1.382.2-1 .975.236 1.377L9 9.966l-1.236.65L8 9.239l-1-.975 1.382-.2L9 6.811Zm6 0 .618 1.253 1.382.2-1 .975.236 1.377L15 9.966l-1.236.65L14 9.239l-1-.975 1.382-.2L15 6.811Z"/>
</svg>

<?xml version="1.0" encoding="UTF-8"?>
<svg id="Layer_1" xmlns="http://www.w3.org/2000/svg" width="24" height="24" version="1.1" viewBox="0 0 24 24">
  <!-- Generator: Adobe Illustrator 29.8.2, SVG Export Plug-In . SVG Version: 2.1.1 Build 3)  -->
  <path d="M12,21c5,0,9-4,9-9S17,3,12,3h0C7,3,3,7,3,12s4,9,9,9Z" fill="none" stroke="#000" stroke-linecap="round" stroke-linejoin="round" stroke-width="2"/>
  <path d="M17,13c0,2-2.2,4.5-5,4.5s-5-2.5-5-4.5c0,1.4,10,1.4,10,0Z" fill="none" stroke="#000" stroke-linecap="round" stroke-linejoin="round" stroke-width="2"/>
  <path d="M9,6.8l.6,1.3,1.4.2-1,1,.2,1.4-1.2-.7-1.2.6.2-1.4-1-1,1.4-.2.6-1.3ZM15,6.8l.6,1.3,1.4.2-1,1,.2,1.4-1.2-.7-1.2.6.2-1.4-1-1,1.4-.2.6-1.3Z" fill="none" stroke="#000" stroke-linecap="round" stroke-linejoin="round"/>
</svg>
